X: 40517
T: Tommy Hill's Favourite
R: hornpipe
M: 4/4
K: Dmajor
|:(3ABc|d2 f>d c>e A2|G>F (3GAB A>F D2|g>e (3fed e>fd>f|(3efe (3dcB A2 (3ABc|
d>A (3fed c>AA>F|G>FG>B A>G (3GFE|D2 d2 (3ABA (3GFE|D2 F2 D2:|
|:(3Bcd|e>Be>f g2 (3fga|(3bag a>f g>fe>f|g2 (3faf e2 (3dfd|(3efe (3dcB A2 B>c|
(3ded f>d c>eA>F|G2 G>B A>GF>E|D>dc>B A2 (3GFE|(3DDD (3GFE D2:|

